static/icons/carousel-arrow-right.svg

<svg width="90" height="90" viewBox="0 0 90 90" fill="none" xmlns="http://www.w3.org/2000/svg">
<g filter="url(#filter0_d)">
<path d="M41.5991 75.633C60.3954 75.633 75.6328 60.3956 75.6328 41.5993C75.6328 22.8031 60.3954 7.56567 41.5991 7.56567C22.8028 7.56567 7.56543 22.8031 7.56543 41.5993C7.56543 60.3956 22.8028 75.633 41.5991 75.633Z" fill="#EBECE9"/>
<path d="M41.5994 7.56567C31.1347 7.56567 21.2357 12.4209 14.7778 20.67C28.2593 7.61281 49.8014 7.94278 62.8586 21.4714C74.6903 33.6801 75.6802 52.7239 65.2155 66.1111C78.7442 53.101 79.1684 31.5589 66.1112 18.0303C59.7004 11.2896 50.8384 7.56567 41.5994 7.56567Z" fill="#C1C1C1"/>
<path d="M41.5993 76.1986C22.5084 76.1986 7 60.6902 7 41.5993C7 22.5084 22.5084 7 41.5993 7C60.6902 7 76.1986 22.5084 76.1986 41.5993C76.1986 60.6902 60.6902 76.1986 41.5993 76.1986ZM41.5993 8.13131C23.1212 8.13131 8.13131 23.1212 8.13131 41.5993C8.13131 60.0774 23.1212 75.0673 41.5993 75.0673C60.0774 75.0673 75.0673 60.0774 75.0673 41.5993C75.0673 23.1212 60.0774 8.13131 41.5993 8.13131Z" fill="#244583"/>
<path d="M29.956 69.2693C29.8617 69.2693 29.7203 69.2693 29.626 69.2222C28.4947 68.7037 27.3634 68.138 26.2792 67.4781C25.9021 67.2424 25.8078 66.771 26.0435 66.3939C26.2792 66.0639 26.7506 65.9225 27.0806 66.1111C28.1176 66.7239 29.1546 67.2895 30.2388 67.7609C30.6159 67.9494 30.8045 68.4208 30.6631 68.7979C30.5688 69.0808 30.286 69.2693 29.956 69.2693Z" fill="white"/>
<path d="M24.0639 65.7812C23.8753 65.7812 23.7339 65.734 23.5925 65.6398C19.3501 62.4344 16.0504 58.0977 14.0706 53.1953C13.9292 52.7711 14.1178 52.3468 14.4949 52.1583C14.9191 52.0169 15.3434 52.2054 15.5319 52.5825C17.4174 57.2492 20.5285 61.3031 24.5824 64.367C24.9124 64.6499 25.0067 65.1212 24.7238 65.4512C24.5353 65.6869 24.2996 65.7812 24.0639 65.7812Z" fill="white"/>
<path d="M22.5991 45.305V38.6779C22.5991 37.5844 23.4938 36.6897 24.5873 36.6897H38.1508V25.5893C38.1508 23.8165 40.2881 22.9384 41.5472 24.181L57.9494 40.5832C58.7281 41.3619 58.7281 42.621 57.9494 43.3997L41.5472 59.8019C40.2881 61.061 38.1508 60.1664 38.1508 58.3936V47.2932H24.5873C23.4938 47.2932 22.5991 46.3985 22.5991 45.305Z" fill="#9FEFDE"/>
<path d="M57.36 41.3947C57.8083 41.8431 57.7344 42.5894 57.2069 42.9411C56.8123 43.2043 56.2873 43.1555 55.9478 42.8242L39.3858 26.6605C38.9504 26.2355 38.9231 25.5442 39.3238 25.0863C39.7602 24.5876 40.5274 24.5621 40.996 25.0306L57.36 41.3947Z" fill="#24C4A1"/>
<path d="M38.1508 37.2897H38.7508V36.6897V25.5893C38.7508 24.3584 40.2381 23.7341 41.1245 24.6068C41.1249 24.6072 41.1253 24.6076 41.1258 24.6081L57.5251 41.0074C58.0695 41.5518 58.0695 42.4311 57.5251 42.9755L41.123 59.3776C40.2442 60.2563 38.7508 59.6353 38.7508 58.3936V47.2932V46.6932H38.1508H24.5873C23.8252 46.6932 23.1991 46.0671 23.1991 45.305V38.6779C23.1991 37.9158 23.8252 37.2897 24.5873 37.2897H38.1508Z" stroke="#244583" stroke-width="1.2"/>
</g>
<defs>
<filter id="filter0_d" x="0" y="0" width="89.1986" height="89.1986" filterUnits="userSpaceOnUse" color-interpolation-filters="sRGB">
<feFlood flood-opacity="0" result="BackgroundImageFix"/>
<feColorMatrix in="SourceAlpha" type="matrix" values="0 0 0 0 0 0 0 0 0 0 0 0 0 0 0 0 0 0 127 0"/>
<feOffset dx="3" dy="3"/>
<feGaussianBlur stdDeviation="5"/>
<feColorMatrix type="matrix" values="0 0 0 0 0 0 0 0 0 0 0 0 0 0 0 0 0 0 0.15 0"/>
<feBlend mode="normal" in2="BackgroundImageFix" result="effect1_dropShadow"/>
<feBlend mode="normal" in="SourceGraphic" in2="effect1_dropShadow" result="shape"/>
</filter>
</defs>
</svg>

<svg xmlns="http://www.w3.org/2000/svg" width="90" height="90" fill="none" xmlns:v="https://vecta.io/nano"><g filter="url(#A)"><path d="M41.599 75.633c18.796 0 34.034-15.237 34.034-34.034S60.395 7.566 41.599 7.566 7.565 22.803 7.565 41.599s15.237 34.034 34.034 34.034z" fill="#ebece9"/><path d="M41.599 7.566c-10.465 0-20.364 4.855-26.822 13.104 13.482-13.057 35.024-12.727 48.081.801C74.69 33.68 75.68 52.724 65.216 66.111c13.529-13.01 13.953-34.552.896-48.081C59.7 11.29 50.838 7.566 41.599 7.566z" fill="#c1c1c1"/><path d="M41.599 76.199C22.508 76.199 7 60.69 7 41.599S22.508 7 41.599 7s34.599 15.508 34.599 34.599S60.69 76.199 41.599 76.199zm0-68.067c-18.478 0-33.468 14.99-33.468 33.468s14.99 33.468 33.468 33.468 33.468-14.99 33.468-33.468S60.077 8.131 41.599 8.131z" fill="#244583"/><path d="M29.956 69.269c-.094 0-.236 0-.33-.047-1.131-.519-2.263-1.084-3.347-1.744a.77.77 0 0 1-.236-1.084c.236-.33.707-.471 1.037-.283 1.037.613 2.074 1.178 3.158 1.65.377.188.566.66.424 1.037-.094.283-.377.471-.707.471z" fill="#fff"/><path d="M24.064 65.781c-.189 0-.33-.047-.471-.141a29.47 29.47 0 0 1-9.522-12.444.84.84 0 0 1 .424-1.037.84.84 0 0 1 1.037.424c1.886 4.667 4.997 8.721 9.051 11.785.33.283.424.754.141 1.084-.189.236-.424.33-.66.33z" fill="#fff"/><path d="M22.599 45.305v-6.627c0-1.093.895-1.988 1.988-1.988h13.563v-11.1c0-1.773 2.137-2.651 3.396-1.408l16.402 16.402a1.99 1.99 0 0 1 0 2.817L41.547 59.802c-1.259 1.259-3.396.364-3.396-1.408v-11.1H24.587c-1.093 0-1.988-.895-1.988-1.988z" fill="#9fefde"/><path d="M57.36 41.395c.448.448.374 1.195-.153 1.546-.395.263-.92.214-1.259-.117L39.386 26.661c-.435-.425-.463-1.116-.062-1.574.436-.499 1.204-.524 1.672-.056L57.36 41.395z" fill="#24c4a1"/><path d="M38.151 37.29h.6v-.6-11.1c0-1.231 1.487-1.855 2.374-.983l16.401 16.401a1.39 1.39 0 0 1 0 1.968L41.123 59.378a1.39 1.39 0 0 1-2.372-.984v-11.1-.6h-.6-13.563c-.762 0-1.388-.626-1.388-1.388v-6.627c0-.762.626-1.388 1.388-1.388h13.563z" stroke="#244583" stroke-width="1.2"/></g><defs><filter id="A" x="0" y="0" width="89.199" height="89.199" filterUnits="userSpaceOnUse" color-interpolation-filters="sRGB"><feFlood flood-opacity="0" result="A"/><feColorMatrix in="SourceAlpha" values="0 0 0 0 0 0 0 0 0 0 0 0 0 0 0 0 0 0 127 0"/><feOffset dx="3" dy="3"/><feGaussianBlur stdDeviation="5"/><feColorMatrix values="0 0 0 0 0 0 0 0 0 0 0 0 0 0 0 0 0 0 0.15 0"/><feBlend in2="A"/><feBlend in="SourceGraphic"/></filter></defs></svg>
